src/icons/flow.svg

<svg class="flow-logo" xmlns="http://www.w3.org/2000/svg" viewBox="0 0 300 300">
  <path
    d="m38.75 33.427 77.461 77.47H54.436l61.145 61.16H38.437l93.462 93.478v-77.158l.01-.01v-77.47h-.01V66.982h46.691l20.394 20.393H153.57v76.531h22.05l24.474 24.473h-15.806l-.01-.01v.01h-31.665l-.01-.01v.01h-.313l.313.313v77.148h109.149l-39.2-39.2v-15.806l8.465 8.466v-77.37h-15.682l.017-38.191 30.09 30.086V56.362h-64.874l-22.94-22.934H113.71z"
    fill="#fbc02d"
    fill-opacity=".976"
    class="flow-logo-mark"
  />
</svg>

<svg viewBox="0 0 300 300" xmlns="http://www.w3.org/2000/svg">
  <path
    d="M38.75 33.427L116.211 110.897H54.436L115.581 172.057H38.437L131.899 265.535V188.377L131.909 188.367V110.897H131.899V66.982H178.59L198.984 87.375H153.57V163.906H175.62L200.094 188.379H184.288L184.278 188.369V188.379H152.613L152.603 188.369V188.379H152.29L152.603 188.692V265.84H261.752L222.552 226.64V210.834L231.017 219.3V141.93H215.335L215.352 103.739L245.442 133.825V56.362H180.568L157.628 33.428H113.71L38.75 33.427Z"
    fill="#FBC02D"
  />
</svg>
